src/images/svg/symbols/monero_flag.svg

<svg width="33" height="32" viewBox="0 0 33 32" fill="none" xmlns="http://www.w3.org/2000/svg">
<path d="M0.5 16C0.5 7.16344 7.66344 0 16.5 0C25.3366 0 32.5 7.16344 32.5 16C32.5 24.8366 25.3366 32 16.5 32C7.66344 32 0.5 24.8366 0.5 16Z" fill="white"/>
<path d="M16.4998 0C7.66506 0 0.5 7.1642 0.5 15.9993C0.5 17.7657 0.786152 19.4644 1.3151 21.0534H6.0999V7.59169L16.4998 17.9916L26.8997 7.59169V21.0534H31.6849C32.2139 19.4644 32.5 17.7657 32.5 15.9993C32.5 7.1642 25.3349 0 16.4998 0Z" fill="#FF6600"/>
<path d="M9.57003 15.8438V24.3143H2.82812C5.63675 28.9222 10.7094 31.9996 16.4997 31.9996C22.2899 31.9996 27.363 28.9222 30.1712 24.3143H23.4297V15.8438L16.4997 22.7738L9.57003 15.8438Z" fill="#4C4C4C"/>
</svg>

<svg width="33" height="32" fill="none" xmlns="http://www.w3.org/2000/svg"><path d="M.5 16c0-8.837 7.163-16 16-16s16 7.163 16 16-7.163 16-16 16-16-7.163-16-16Z" fill="#fff"/><path d="M16.5 0C7.665 0 .5 7.164.5 16c0 1.766.286 3.464.815 5.053H6.1V7.592l10.4 10.4 10.4-10.4v13.461h4.785A15.97 15.97 0 0 0 32.5 16C32.5 7.164 25.335 0 16.5 0Z" fill="#F60"/><path d="M9.57 15.844v8.47H2.828C5.637 28.922 10.71 32 16.5 32c5.79 0 10.863-3.078 13.671-7.686H23.43v-8.47l-6.93 6.93-6.93-6.93Z" fill="#4C4C4C"/></svg>
